X:44
T:Wolf's Fancy. ThoH.044
Q:1/2=90
M:3/2
L:1/8
B:Thompson's Compleat Collection of 120 Favourite Hornpipes.
Z:Village Music Project, Simon Wilson 2016
O:England.
K:Bb
B4d2ge dcBA|G2gf edcB AGFE|D2fe dcBA GFED|C2cB AcFAB2B,2:|
|:B4d2f2b4|bgaf gefd ecdB|Acf=e dcBAB2AG|AcFA G2F=EF4|
BFDF B,DF_A GEDE|cG=EG CEGB AF=EF|fcAc FAce dcBA|((3Bba) ((3gfe)d2Tc2B4:|

